icons/svg/hanger.svg

﻿<?xml version="1.0" encoding="utf-8"?>
<!DOCTYPE svg PUBLIC "-//W3C//DTD SVG 1.1//EN" "http://www.w3.org/Graphics/SVG/1.1/DTD/svg11.dtd">
<svg xmlns="http://www.w3.org/2000/svg" xmlns:xlink="http://www.w3.org/1999/xlink" version="1.1" baseProfile="full" width="24" height="24" viewBox="0 0 24.00 24.00" enable-background="new 0 0 24.00 24.00" xml:space="preserve">
	<path fill="#000000" fill-opacity="1" fill-rule="evenodd" stroke-linejoin="round" d="M 20.7552,16.3363L 20.7547,16.3372C 21.4994,16.7701 22,17.5766 22,18.5C 22,19.8807 20.8807,21 19.5,21L 4.5,21C 3.11929,21 2,19.8807 2,18.5C 2,17.5766 2.50064,16.7701 3.24529,16.3372L 3.24479,16.3363L 11,11.8589C 11,11.8589 11,11 12,10C 13,10 14,9.10457 14,8C 14,6.89543 13.1046,6 12,6C 10.8954,6 10,6.89543 10,8L 8,8C 8,5.79086 9.79086,4 12,4C 14.2091,4 16,5.79086 16,8C 16,9.85733 14.7341,11.419 13.0181,11.8693L 20.7552,16.3363 Z M 4.5,19L 4.51039,19L 19.4896,19L 19.5,19C 19.6727,19 19.8406,18.9103 19.9331,18.75C 20.0712,18.5109 19.9893,18.2051 19.75,18.067L 12,13.5916L 4.25002,18.067C 4.01074,18.2051 3.9288,18.5109 4.06687,18.75C 4.15942,18.9103 4.32732,19 4.5,19 Z "/>
	<path fill="#000000" fill-opacity="1" fill-rule="evenodd" stroke-linejoin="round" d="M 11,11.8589L 12,10C 13.1046,10 14,9.10457 14,8"/>
	<path fill="#000000" fill-opacity="1" fill-rule="evenodd" stroke-linejoin="round" d="M 11,11.8589L 12,10C 13.1046,10 14,9.10457 14,8"/>
</svg>

<svg xmlns="http://www.w3.org/2000/svg" version="1.1" baseProfile="full" width="24" height="24" viewBox="0 0 24.00 24.00" xml:space="preserve"><path fill="#000" fill-opacity="1" fill-rule="evenodd" stroke-linejoin="round" d="M20.755 16.336C21.5 16.77 22 17.577 22 18.5c0 1.38-1.12 2.5-2.5 2.5h-15C3.12 21 2 19.88 2 18.5c0-.923.5-1.73 1.245-2.163L11 11.858S11 11 12 10c1 0 2-.895 2-2s-.895-2-2-2-2 .895-2 2H8c0-2.21 1.79-4 4-4s4 1.79 4 4c0 1.857-1.266 3.42-2.982 3.87l7.737 4.466zM4.5 19h15c.173 0 .34-.09.433-.25.138-.24.056-.545-.183-.683L12 13.592l-7.75 4.475c-.24.138-.32.444-.183.683.092.16.26.25.433.25z"/><path fill="#000" fill-opacity="1" fill-rule="evenodd" stroke-linejoin="round" d="M11 11.86L12 10c1.105 0 2-.895 2-2"/><path fill="#000" fill-opacity="1" fill-rule="evenodd" stroke-linejoin="round" d="M11 11.86L12 10c1.105 0 2-.895 2-2"/></svg>
